X: 12867
T: Fermoy Lasses, The
R: reel
M: 4/4
K: Gmajor
|:GEE2BEE2|GEE2 BcBA|GEE2 BEE2|AFDF AcBA|
GEE2BEE2|GEE2 BcBA|G2GF GBdB|AFDF AcBA:|
|:G2BG dGBG|G2BG defg|G2BG dGBG|AFGF AcBA|
G2BG dGBG|G2BG defg|afge dedB|AFDF AcBA:|

